assets/img/braze_icons/users-03.svg

<svg fill="none" height="24" viewBox="0 0 24 24" width="24" xmlns="http://www.w3.org/2000/svg"><g clip-rule="evenodd" fill="#801ed7" fill-rule="evenodd"><path d="m17.1064 15.388c.2479-.4935.8489-.6926 1.3425-.4447 1.6344.8211 3.016 2.1282 4.0159 3.7389.1515.244.372.5699.4404 1.0115.0733.4728-.055.9249-.2462 1.2687-.1912.3437-.5077.6912-.948.8783-.4187.1779-.8741.1593-1.211.1593-.5523 0-1-.4477-1-1s.4477-1 1-1c.2152 0 .3283-.0006.4091-.0061l.0021-.0037c.0191-.0344-.1262-.2219-.1456-.2532-.8223-1.3246-1.9372-2.3648-3.2145-3.0065-.4935-.2479-.6926-.849-.4447-1.3425z"/><path d="m15.1045 3.02273c.2457-.49458.8459-.69627 1.3405-.45048 1.8086.89878 3.055 2.76679 3.055 4.92775s-1.2464 4.029-3.055 4.9278c-.4946.2457-1.0948.0441-1.3405-.4505-.2458-.4946-.0441-1.0948.4504-1.3406 1.1549-.5739 1.9451-1.76394 1.9451-3.1367s-.7902-2.5628-1.9451-3.13673c-.4945-.24578-.6962-.84596-.4504-1.34054z"/><path d="m3.99997 7.5c0-3.03757 2.46243-5.5 5.5-5.5 3.03753 0 5.50003 2.46243 5.50003 5.5 0 3.0376-2.4625 5.5-5.50003 5.5-3.03757 0-5.5-2.4624-5.5-5.5z"/><path d="m9.49997 14c3.19623 0 6.05353 1.8041 7.79713 4.4201.1536.2305.3174.4763.4319.7099.1379.2811.2369.6041.2137.9898-.0184.3077-.1205.5931-.2418.8197-.1214.2266-.3023.4698-.5482.6557-.3293.249-.6842.3363-.9979.3728-.2762.0321-.6034.0321-.9329.032-3.8131-.0007-7.62924-.0007-11.44386 0-.32954.0001-.65669.0001-.93293-.032-.3137-.0365-.66859-.1238-.9979-.3728-.24583-.1859-.42681-.4291-.54815-.6557s-.22339-.512-.24186-.8197c-.02315-.3857.07585-.7087.21369-.9898.11453-.2336.27834-.4794.43195-.7099 1.74359-2.616 4.60089-4.4201 7.79713-4.4201z"/></g></svg>

<svg width="24" height="24" viewBox="0 0 24 24" fill="none" xmlns="http://www.w3.org/2000/svg">
<path fill-rule="evenodd" clip-rule="evenodd" d="M17.1064 15.388C17.3543 14.8945 17.9553 14.6954 18.4489 14.9433C20.0833 15.7644 21.4649 17.0715 22.4648 18.6822C22.6163 18.9262 22.8368 19.2521 22.9052 19.6937C22.9785 20.1665 22.8502 20.6186 22.659 20.9624C22.4678 21.3061 22.1513 21.6536 21.711 21.8407C21.2923 22.0186 20.8369 22 20.5 22C19.9477 22 19.5 21.5523 19.5 21C19.5 20.4477 19.9477 20 20.5 20C20.7152 20 20.8283 19.9994 20.9091 19.9939L20.9112 19.9902C20.9303 19.9558 20.785 19.7683 20.7656 19.737C19.9433 18.4124 18.8284 17.3722 17.5511 16.7305C17.0576 16.4826 16.8585 15.8815 17.1064 15.388Z" fill="#801ED7"/>
<path fill-rule="evenodd" clip-rule="evenodd" d="M15.1045 3.02273C15.3502 2.52815 15.9504 2.32646 16.445 2.57225C18.2536 3.47103 19.5 5.33904 19.5 7.5C19.5 9.66096 18.2536 11.529 16.445 12.4278C15.9504 12.6735 15.3502 12.4719 15.1045 11.9773C14.8587 11.4827 15.0604 10.8825 15.5549 10.6367C16.7098 10.0628 17.5 8.87276 17.5 7.5C17.5 6.12724 16.7098 4.9372 15.5549 4.36327C15.0604 4.11749 14.8587 3.51731 15.1045 3.02273Z" fill="#801ED7"/>
<path fill-rule="evenodd" clip-rule="evenodd" d="M3.99997 7.5C3.99997 4.46243 6.4624 2 9.49997 2C12.5375 2 15 4.46243 15 7.5C15 10.5376 12.5375 13 9.49997 13C6.4624 13 3.99997 10.5376 3.99997 7.5Z" fill="#801ED7"/>
<path fill-rule="evenodd" clip-rule="evenodd" d="M9.49997 14C12.6962 14 15.5535 15.8041 17.2971 18.4201C17.4507 18.6506 17.6145 18.8964 17.729 19.13C17.8669 19.4111 17.9659 19.7341 17.9427 20.1198C17.9243 20.4275 17.8222 20.7129 17.7009 20.9395C17.5795 21.1661 17.3986 21.4093 17.1527 21.5952C16.8234 21.8442 16.4685 21.9315 16.1548 21.968C15.8786 22.0001 15.5514 22.0001 15.2219 22C11.4088 21.9993 7.59266 21.9993 3.77804 22C3.4485 22.0001 3.12135 22.0001 2.84511 21.968C2.53141 21.9315 2.17652 21.8442 1.84721 21.5952C1.60138 21.4093 1.4204 21.1661 1.29906 20.9395C1.17772 20.7129 1.07567 20.4275 1.0572 20.1198C1.03405 19.7341 1.13305 19.4111 1.27089 19.13C1.38542 18.8964 1.54923 18.6506 1.70284 18.4201C3.44643 15.8041 6.30373 14 9.49997 14Z" fill="#801ED7"/>
</svg>
